X:1
T:Title
%%score { ( 1 4 ) | ( 2 3 ) }
L:1/8
Q:1/4=113
M:6/8
K:Db
V:1 treble nm="Grand Piano"
V:4 treble 
V:2 bass 
V:3 bass 
V:1
 [Fd]2 [Fd] [Gc]2 [GB] | [Fd]3 A3 | B2 B A2 G | F6 | [CE]2 [DF] [EG]2 [CE] | F2 G A2 A | %6
w: Howard~W.~Lyman * * *||||||
 B2 B Bc[Ed] | c6 | d3 c3 | .[FB]3 .[A,FA]3 | [A,DF]2 [=G,D_F] [A,D=F]2 [G,D_F] | [A,DF]6 | d3 c3 | %13
w: |||||||
 .[FB]3 D2 D | G2 F G2 F | G6[K:bass] | F2 F A2 A | GA[CG] F3 | B2 B A2 A | =GFG A2 A | d3 B3 | %21
w: ||||||||
 A3 F3 |[M:7/8] E-E-E- E3 z |[M:3/4] D6 |] %24
w: |||
V:2
 [D,A,]2 [D,A,] [D,A,]2 [D,A,] | [D,A,]3 [D,F,D]3 | [G,D]2 [G,D] [F,A,D]2 [E,A,B,] | [D,A,D]6 | %4
 [A,,A,]2 [A,,A,] [A,,A,]2 [A,,A,] | [D,A,D]2 [E,A,C] [F,A,D]2 [D,F,D] | %6
 [G,D]2 [F,A,=D] [E,E]-[E,A,E][D,B,] | [A,,A,]6 | [D,A,]3 [A,,A,]3 | z2 F z2 F | D,2 D, D,2 D, | %11
 D,2 A,, B,,2 C, | [D,A,]3 [A,,A,]3 | z2 F F,2 _F, | [E,A,C]2 [=D,A,_C] [E,A,=C]2 [D,A,_C] | %15
 [A,C]6 | [D,A,D]2 [D,A,D] [F,A,D]2 [F,A,D] | [E,A,C]2 [A,,A,] [D,A,D]3 | %18
 [G,D]2 [G,D] [F,A,D]2 [F,A,D] | [E,B,D]2 [E,B,D] [A,C]2 [G,A,C] | [F,A,D]3 [G,D]3 | %21
 [F,A,D]3 [D,A,D]3 |[M:7/8] z z2 G,3 [D,F,] |[M:3/4] [D,F,]6 |] %24
V:3
 x6 | x6 | x6 | x6 | x6 | x6 | z3 .=G,3 | x6 | x6 | [D,A,]3 A,,3 | x6 | x6 | x6 | [D,A,]3 z3 | x6 | %15
 .E,3 z3 | x6 | x6 | x6 | x6 | x6 | x6 |[M:7/8] A,,-A,,-A,,- A,,3 z |[M:3/4] x6 |] %24
V:4
 x6 | x6 | x6 | x6 | x6 | x6 | x6 | E2 F .G3 | F2 F F2 F | x6 | x6 | x6 | F2 F F2 F | z3 [A,A]3 | %14
 x6 | z2[K:bass] A,, B,,2 C, | x6 | x6 | x6 | x6 | x6 | x6 |[M:7/8] [A,D]3 C3 D |[M:3/4] x6 |] %24

